X:7837
T:Hungarian folk dance
C:anon
O:Hungary
Z:Transcribed by Frank Nordberg - http://www.musicaviva.com
F:http://abc.musicaviva.com/tunes/hungary/hungarian-dance01.abc
M:2/4
L:1/8
K:Dm
DFED|DFED|DFED|D2D2:|
DCCC|DB,B,B,|DFED|D2D2|
DCCC|DB,B,B,|DA,A,A,|G,2HG,2|]
W:
W:
W:  From Musica Viva - http://www.musicaviva.com
W:  the Internet center for free sheet music downloads.
